X:156
T: Trealock Lauder
N: O'Farrell's Pocket Companion v.2 (Sky ed. p.80)
N: "Irish"
N: ? name = Turloch Láidir (Turloch the Strong)
M: 9/8
L: 1/8
R: slip jig
Q: 320
K: D
A|F/G/A>F G2B AFD|FAF G2AB2E|F/G/A>F G2B AFD|EFE EFA B2 :|
d|gag fdB BAF|gfe fdB B2A|gag fdB AFd|EFE EFA B2 :|
c|dFd FdB AFD|ded def g2e|ded fdB AFD|EFE EFA B2 :|
